icons/t.svg

<svg width="48" height="48" viewBox="0 0 48 48" fill="none" xmlns="http://www.w3.org/2000/svg">
<path fill-rule="evenodd" clip-rule="evenodd" d="M13 12C13 10.3431 14.3431 9 16 9L32 9C33.6569 9 35 10.3431 35 12C35 13.6569 33.6569 15 32 15H27L27 36C27 37.6569 25.6569 39 24 39C22.3431 39 21 37.6569 21 36L21 15L16 15C14.3431 15 13 13.6569 13 12ZM16 11C15.4477 11 15 11.4477 15 12C15 12.5523 15.4477 13 16 13L23 13L23 36C23 36.5523 23.4477 37 24 37C24.5523 37 25 36.5523 25 36L25 13H32C32.5523 13 33 12.5523 33 12C33 11.4477 32.5523 11 32 11L16 11Z" fill="black"/>
</svg>

<svg
  xmlns="http://www.w3.org/2000/svg"
  width="24"
  height="24"
  viewBox="0 0 24 24"
  fill="none"
  stroke="currentColor"
  stroke-width="2"
  stroke-linecap="round"
  stroke-linejoin="round"
>
  <path
    fill-rule="evenodd"
    d="M13 12a3 3 0 0 1 3-3h16a3 3 0 1 1 0 6h-5v21a3 3 0 1 1-6 0V15h-5a3 3 0 0 1-3-3m3-1a1 1 0 1 0 0 2h7v23a1 1 0 1 0 2 0V13h7a1 1 0 1 0 0-2z"
    clip-rule="evenodd"
  />
</svg>
